svgs/regular/empty-set.svg

<svg xmlns="http://www.w3.org/2000/svg" viewBox="0 0 512 512"><!-- Font Awesome Pro 6.0.0-alpha2 by @fontawesome - https://fontawesome.com License - https://fontawesome.com/license (Commercial License) --><path d="M504.969 7.031C495.594 -2.344 480.406 -2.344 471.031 7.031L396.441 81.621C358.016 50.633 309.207 32 256 32C132.289 32 32 132.289 32 256C32 309.207 50.633 358.016 81.621 396.441L7.031 471.031C-2.344 480.406 -2.344 495.594 7.031 504.969C11.719 509.656 17.844 512 24 512S36.281 509.656 40.969 504.969L115.559 430.379C153.984 461.367 202.793 480 256 480C379.711 480 480 379.711 480 256C480 202.793 461.367 153.984 430.379 115.559L504.969 40.969C514.344 31.594 514.344 16.406 504.969 7.031ZM80 256C80 158.953 158.953 80 256 80C295.881 80 332.586 93.488 362.131 115.932L115.932 362.131C93.488 332.586 80 295.881 80 256ZM432 256C432 353.047 353.047 432 256 432C216.119 432 179.414 418.512 149.869 396.068L396.068 149.869C418.512 179.414 432 216.119 432 256Z"/></svg>

<svg xmlns="http://www.w3.org/2000/svg" viewBox="0 0 512 512"><!--! Font Awesome Pro 6.0.0-alpha3 by @fontawesome - https://fontawesome.com License - https://fontawesome.com/license (Commercial License) --><path d="M504.1 7.031c-9.375-9.375-24.56-9.375-33.94 0l-74.59 74.59C358 50.63 309.2 32 256 32C132.3 32 32 132.3 32 256c0 53.21 18.63 102 49.62 140.4l-74.59 74.59c-9.375 9.375-9.375 24.56 0 33.94C11.72 509.7 17.84 512 24 512s12.28-2.344 16.97-7.031l74.59-74.59C153.1 461.4 202.8 480 256 480c123.7 0 224-100.3 224-224c0-53.21-18.63-102-49.62-140.4l74.59-74.59C514.3 31.59 514.3 16.41 504.1 7.031zM80 256c0-97.05 78.95-176 176-176c39.88 0 76.59 13.49 106.1 35.93l-246.2 246.2C93.49 332.6 80 295.9 80 256zM432 256c0 97.05-78.95 176-176 176c-39.88 0-76.59-13.49-106.1-35.93l246.2-246.2C418.5 179.4 432 216.1 432 256z"/></svg>
